X: 26455
T: Metsäkukkia
R: waltz
M: 3/4
K: Gminor
||"intro" D3 ^F A2|(3cdc B2 (3ABA|G3 A G^F|G4 z2||
|:D2 G2 A2|B2 A2 G2|(d6|d6)|D2 G3 A|B2 (3ABA G2|e6|e2 d2 c2|
c2 d3 e|e2 d2 ^c2|d2 de d^c|(3ded (3cdc (3BcB|D2 ^F3 A|c2 B2 A2|Gz zA G^F|1 G4 z2:|2 Gz g3 f||
|:f6|f2 g3 e|d6|d2 e3 d|c6|c2 d3 c|(B6|B2) d2 d2|
(d6|d2) (3cdc (3BcB|(A6|A2) F2 A2|D ^C3 D2|B4 A2|G6|1 Gz g3 f:|2 G2 z2 g^f||
|:g2 z2 d^c|d2 z2 BA|(3BcB (3ABA (3GAG|Gz (3Bcd g2|e4 d2|c2 e2 g2|(d6|d6)|
d2 ^f3 g|a4 z2|d2 g3 a|b4 z2|d2 ^f3 a|b2 z2 a2|1 (g6|g2) z2 g^f:|2 (g6|g2) z4||

